assets/icons/qvision/save_alt.svg

<svg xmlns="http://www.w3.org/2000/svg" height="24" viewBox="0 0 24 24" width="24"><path d="M0 0h24v24H0z" fill="none"/><path d="M19 12v7H5v-7H3v7c0 1.1.9 2 2 2h14c1.1 0 2-.9 2-2v-7h-2zm-6 .67l2.59-2.58L17 11.5l-5 5-5-5 1.41-1.41L11 12.67V3h2z"/></svg>

<svg width="24" height="24" viewBox="0 0 24 24" fill="none" xmlns="http://www.w3.org/2000/svg">
<g clip-path="url(#clip0_147_2252)">
<path d="M19 12V19H5V12H3V19C3 20.1 3.9 21 5 21H19C20.1 21 21 20.1 21 19V12H19ZM13 12.67L15.59 10.09L17 11.5L12 16.5L7 11.5L8.41 10.09L11 12.67V3H13V12.67Z" fill="#323232"/>
</g>
<defs>
<clipPath id="clip0_147_2252">
<rect width="24" height="24" fill="white"/>
</clipPath>
</defs>
</svg>
